svg/lamps.svg

<svg xmlns="http://www.w3.org/2000/svg" viewBox="0 0 24 24"><path d="m10 2 2 7H2l2-7m2 8h2v10h3v2H3v-2h3zm14-2 2 7H12l2-7m2 8h2v4h3v2h-8v-2h3z"/></svg>

<?xml version="1.0" encoding="UTF-8"?><!DOCTYPE svg PUBLIC "-//W3C//DTD SVG 1.1//EN" "http://www.w3.org/Graphics/SVG/1.1/DTD/svg11.dtd"><svg xmlns="http://www.w3.org/2000/svg" xmlns:xlink="http://www.w3.org/1999/xlink" version="1.1" id="mdi-lamps" width="24" height="24" viewBox="0 0 24 24"><path d="M10 2L12 9H2L4 2M6 10H8V20H11V22H3V20H6V10M20 8L22 15H12L14 8M16 16H18V20H21V22H13V20H16V16Z" /></svg>
